outputs/icons/audio_video/microphone_off_round.svg

<svg width="1200" height="1200" viewBox="0 0 1200 1200" fill="none" xmlns="http://www.w3.org/2000/svg"><g clip-path="url(#clip0_231_5135)"><path d="M750 530V250C750 167 683 100 600 100C523 100 460.499 158 451.999 232.5L750 530ZM904 550C883.5 550 865.5 565 862.5 585.5C860 601.5 856.5 617.5 851.5 632L915 695.5C930 665.5 941 633 946.5 598.5C950 573 930 550 904 550ZM185.499 178C165.999 197.5 165.999 229 185.499 248.5L449.999 513.5V535C449.999 594.5 479.999 651 531.5 680.5C569 702 602 702.5 632.5 696L715.5 779C680 795.5 640.5 805 600 805C472.999 805 355.999 716.5 337.499 585.5C334.499 565 316.499 550 295.999 550C269.999 550 249.999 573 253.499 598.5C276.499 746.5 401.499 863.5 550 886V1000C550 1027.5 572.5 1050 600 1050C627.5 1050 650 1027.5 650 1000V886C695.5 879.5 738.5 863.5 777.5 841L952 1015.5C971.5 1035 1003 1035 1022.5 1015.5C1042 996 1042 964.5 1022.5 945L255.999 178C236.499 158.5 204.999 158.5 185.499 178Z" fill="#1D1E23"/></g><defs><clipPath id="clip0_231_5135"><path width="24" fill="white" d="M0 0H1200V1200H0V0z"/></clipPath></defs></svg>

<svg xmlns="http://www.w3.org/2000/svg" width="1200" height="1200" fill="none"><g clip-path="url(#a)"><path fill="#000" d="M750 530V250c0-83-67-150-150-150-77 0-139.499 58-147.999 132.5zm154 20c-20.5 0-38.5 15-41.5 35.5-2.5 16-6 32-11 46.5l63.5 63.5c15-30 26-62.5 31.5-97C950 573 930 550 904 550M185.5 178c-19.5 19.5-19.5 51 0 70.5l264.5 265V535c0 59.5 30 116 81.5 145.5 37.5 21.5 70.5 22 101 15.5l83 83c-35.5 16.5-75 26-115.5 26-126.999 0-244-88.5-262.5-219.5-3-20.5-21-35.5-41.499-35.5C270 550 250 573 253.5 598.5c23 148 148.001 265 296.5 287.5v114c0 27.5 22.5 50 50 50s50-22.5 50-50V886c45.5-6.5 88.5-22.5 127.5-45L952 1015.5c19.5 19.5 51 19.5 70.5 0s19.5-51 0-70.5L256 178c-19.5-19.5-50.999-19.5-70.5 0"/></g><defs><clipPath id="a"><path fill="#fff" d="M0 0h1200v1200H0z"/></clipPath></defs></svg>
